X: 10650
T: Down In The Willow Garden
R: waltz
M: 3/4
K: Eminor
DE|G4 G2|B2 A2 G2|B2 d2 d2|e4 dB|G4 G2|B2A2 G2|E6-|E4 DE
G4 G2|B2 A2 G2|B2 d2 d2|e4 dB|G4 G2|D2E2 BA|G6-|G2 B2d2|
e6|e2d2B2|d4 d2|e4dB|G4 G2|B2 A2 G2|E6-|E4 DE|
G4 G2|B2 A2 G2|B2 d2 d2|e4 dB|G4 G2|D2E2 BA|G6-|G6||

